assets/static/shop-logo.svg

<svg width="230" height="42" viewBox="0 0 230 42" fill="none" xmlns="http://www.w3.org/2000/svg">
<path d="M65.72 29.336C64.776 29.336 63.76 29.208 62.672 28.952C61.6 28.696 60.76 28.416 60.152 28.112L60.512 24.848C62.624 25.872 64.48 26.384 66.08 26.384C66.928 26.384 67.592 26.224 68.072 25.904C68.552 25.568 68.792 25.08 68.792 24.44C68.792 23.96 68.656 23.568 68.384 23.264C68.128 22.944 67.752 22.68 67.256 22.472C66.76 22.248 65.968 21.944 64.88 21.56C63.856 21.208 63.008 20.84 62.336 20.456C61.664 20.056 61.128 19.552 60.728 18.944C60.344 18.32 60.152 17.56 60.152 16.664C60.152 15.224 60.68 14.064 61.736 13.184C62.792 12.304 64.304 11.864 66.272 11.864C67.2 11.864 68.12 11.968 69.032 12.176C69.96 12.384 70.808 12.64 71.576 12.944L71.264 16.088C70.272 15.656 69.36 15.336 68.528 15.128C67.712 14.904 66.896 14.792 66.08 14.792C65.168 14.792 64.472 14.944 63.992 15.248C63.512 15.552 63.272 15.992 63.272 16.568C63.272 17.016 63.4 17.384 63.656 17.672C63.912 17.96 64.256 18.2 64.688 18.392C65.136 18.584 65.792 18.816 66.656 19.088C68.592 19.696 70 20.4 70.88 21.2C71.776 21.984 72.224 23.064 72.224 24.44C72.224 25.752 71.768 26.896 70.856 27.872C69.944 28.848 68.232 29.336 65.72 29.336ZM89.3859 29L87.9459 17.744L83.6499 25.472L79.3299 17.768L77.8899 29H74.6979L77.0259 12.2H79.5459L83.6499 19.856L87.7299 12.2H90.2499L92.5779 29H89.3859ZM104.914 25.016H98.7941L97.4021 29H94.4261L100.402 12.2H103.306L109.282 29H106.306L104.914 25.016ZM103.954 22.328L101.866 16.328L99.7541 22.328H103.954ZM111.922 12.2H118.066C119.858 12.2 121.266 12.632 122.29 13.496C123.33 14.344 123.85 15.608 123.85 17.288C123.85 18.456 123.602 19.416 123.106 20.168C122.61 20.904 121.906 21.496 120.994 21.944L124.786 29H121.354L118.114 22.76H117.994H114.994V29H111.922V12.2ZM117.25 20.192C119.506 20.192 120.634 19.28 120.634 17.456C120.634 16.576 120.378 15.912 119.866 15.464C119.354 15 118.522 14.768 117.37 14.768H114.994V20.192H117.25ZM130.765 15.176H126.013V12.2H138.589V15.176H133.837V29H130.765V15.176ZM146.382 29.336C145.438 29.336 144.422 29.208 143.334 28.952C142.262 28.696 141.422 28.416 140.814 28.112L141.174 24.848C143.286 25.872 145.142 26.384 146.742 26.384C147.59 26.384 148.254 26.224 148.734 25.904C149.214 25.568 149.454 25.08 149.454 24.44C149.454 23.96 149.318 23.568 149.046 23.264C148.79 22.944 148.414 22.68 147.918 22.472C147.422 22.248 146.63 21.944 145.542 21.56C144.518 21.208 143.67 20.84 142.998 20.456C142.326 20.056 141.79 19.552 141.39 18.944C141.006 18.32 140.814 17.56 140.814 16.664C140.814 15.224 141.342 14.064 142.398 13.184C143.454 12.304 144.966 11.864 146.934 11.864C147.862 11.864 148.782 11.968 149.694 12.176C150.622 12.384 151.47 12.64 152.238 12.944L151.926 16.088C150.934 15.656 150.022 15.336 149.19 15.128C148.374 14.904 147.558 14.792 146.742 14.792C145.83 14.792 145.134 14.944 144.654 15.248C144.174 15.552 143.934 15.992 143.934 16.568C143.934 17.016 144.062 17.384 144.318 17.672C144.574 17.96 144.918 18.2 145.35 18.392C145.798 18.584 146.454 18.816 147.318 19.088C149.254 19.696 150.662 20.4 151.542 21.2C152.438 21.984 152.886 23.064 152.886 24.44C152.886 25.752 152.43 26.896 151.518 27.872C150.606 28.848 148.894 29.336 146.382 29.336ZM156.152 12.2H159.224V18.848H166.904V12.2H169.976V29H166.904V21.728H159.224V29H156.152V12.2ZM181.676 29.336C180.092 29.336 178.668 28.976 177.404 28.256C176.156 27.52 175.172 26.496 174.452 25.184C173.748 23.856 173.396 22.328 173.396 20.6C173.396 18.872 173.748 17.352 174.452 16.04C175.172 14.712 176.156 13.688 177.404 12.968C178.668 12.232 180.092 11.864 181.676 11.864C183.26 11.864 184.676 12.232 185.924 12.968C187.188 13.688 188.172 14.712 188.876 16.04C189.596 17.352 189.956 18.872 189.956 20.6C189.956 22.328 189.596 23.856 188.876 25.184C188.172 26.496 187.188 27.52 185.924 28.256C184.676 28.976 183.26 29.336 181.676 29.336ZM181.676 26.36C183.308 26.36 184.556 25.832 185.42 24.776C186.3 23.72 186.74 22.328 186.74 20.6C186.74 18.872 186.3 17.48 185.42 16.424C184.556 15.368 183.308 14.84 181.676 14.84C180.044 14.84 178.788 15.368 177.908 16.424C177.044 17.48 176.612 18.872 176.612 20.6C176.612 22.328 177.044 23.72 177.908 24.776C178.788 25.832 180.044 26.36 181.676 26.36ZM193.358 12.2H199.334C203.318 12.2 205.31 14.008 205.31 17.624C205.31 19.496 204.806 20.888 203.798 21.8C202.79 22.712 201.326 23.168 199.406 23.168H196.43V29H193.358V12.2ZM199.046 20.6C200.102 20.6 200.886 20.36 201.398 19.88C201.926 19.4 202.19 18.664 202.19 17.672C202.19 16.68 201.926 15.952 201.398 15.488C200.87 15.008 200.062 14.768 198.974 14.768H196.43V20.6H199.046Z" fill="black"/>
<path d="M42 9.54545C42 7.01384 40.9943 4.58592 39.2042 2.7958C37.4141 1.00568 34.9862 0 32.4545 0H9.54545C7.01384 0 4.58592 1.00568 2.7958 2.7958C1.00568 4.58592 0 7.01384 0 9.54545V32.4545C0 34.9862 1.00568 37.4141 2.7958 39.2042C4.58592 40.9943 7.01384 42 9.54545 42H13.3636C13.87 42 14.3555 41.7989 14.7136 41.4408C15.0716 41.0828 15.2727 40.5972 15.2727 40.0909C15.2727 39.5846 15.0716 39.099 14.7136 38.741C14.3555 38.383 13.87 38.1818 13.3636 38.1818H9.54545C8.02649 38.1818 6.56973 37.5784 5.49566 36.5043C4.42159 35.4303 3.81818 33.9735 3.81818 32.4545V9.54545C3.81818 8.02649 4.42159 6.56973 5.49566 5.49566C6.56973 4.42159 8.02649 3.81818 9.54545 3.81818H32.4545C33.9735 3.81818 35.4303 4.42159 36.5043 5.49566C37.5784 6.56973 38.1818 8.02649 38.1818 9.54545V32.4545C38.1818 33.9735 37.5784 35.4303 36.5043 36.5043C35.4303 37.5784 33.9735 38.1818 32.4545 38.1818H28.6364C27.1174 38.1818 25.6606 37.5784 24.5866 36.5043C23.5125 35.4303 22.9091 33.9735 22.9091 32.4545C25.4407 32.4545 27.8686 31.4489 29.6587 29.6587C31.4489 27.8686 32.4545 25.4407 32.4545 22.9091V19.0909C32.4545 18.5846 32.2534 18.099 31.8954 17.741C31.5374 17.383 31.0518 17.1818 30.5455 17.1818H26.7273V11.4545C26.7273 10.9482 26.5261 10.4626 26.1681 10.1046C25.8101 9.74659 25.3245 9.54545 24.8182 9.54545C24.3119 9.54545 23.8263 9.74659 23.4683 10.1046C23.1102 10.4626 22.9091 10.9482 22.9091 11.4545V17.1818H19.0909V11.4545C19.0909 10.9482 18.8898 10.4626 18.5317 10.1046C18.1737 9.74659 17.6881 9.54545 17.1818 9.54545C16.6755 9.54545 16.1899 9.74659 15.8319 10.1046C15.4739 10.4626 15.2727 10.9482 15.2727 11.4545V17.1818H11.4545C10.9482 17.1818 10.4626 17.383 10.1046 17.741C9.74659 18.099 9.54545 18.5846 9.54545 19.0909V22.9091C9.54545 25.4407 10.5511 27.8686 12.3413 29.6587C14.1314 31.4489 16.5593 32.4545 19.0909 32.4545C19.0909 34.9862 20.0966 37.4141 21.8867 39.2042C23.6768 40.9943 26.1048 42 28.6364 42H32.4545C34.9862 42 37.4141 40.9943 39.2042 39.2042C40.9943 37.4141 42 34.9862 42 32.4545V9.54545ZM13.3636 22.9091V21H28.6364V22.9091C28.6364 24.4281 28.033 25.8848 26.9589 26.9589C25.8848 28.033 24.4281 28.6364 22.9091 28.6364H19.0909C17.5719 28.6364 16.1152 28.033 15.0411 26.9589C13.967 25.8848 13.3636 24.4281 13.3636 22.9091Z" fill="#7B76BB"/>
</svg>

<?xml version="1.0" encoding="utf-8"?>
<!-- Generator: Adobe Illustrator 24.0.3, SVG Export Plug-In . SVG Version: 6.00 Build 0)  -->
<svg version="1.1" id="Layer_1" xmlns="http://www.w3.org/2000/svg" xmlns:xlink="http://www.w3.org/1999/xlink" x="0px" y="0px"
	 width="230px" height="42px" viewBox="0 0 230 42" style="enable-background:new 0 0 230 42;" xml:space="preserve">
<style type="text/css">
	.st0{fill:#76BB85;}
</style>
<path d="M65.7,29.3c-0.9,0-2-0.1-3-0.4c-1.1-0.3-1.9-0.5-2.5-0.8l0.4-3.3c2.1,1,4,1.5,5.6,1.5c0.8,0,1.5-0.2,2-0.5
	c0.5-0.3,0.7-0.8,0.7-1.5c0-0.5-0.1-0.9-0.4-1.2c-0.3-0.3-0.6-0.6-1.1-0.8c-0.5-0.2-1.3-0.5-2.4-0.9c-1-0.4-1.9-0.7-2.5-1.1
	c-0.7-0.4-1.2-0.9-1.6-1.5c-0.4-0.6-0.6-1.4-0.6-2.3c0-1.4,0.5-2.6,1.6-3.5s2.6-1.3,4.5-1.3c0.9,0,1.8,0.1,2.8,0.3
	c0.9,0.2,1.8,0.5,2.5,0.8l-0.3,3.1c-1-0.4-1.9-0.8-2.7-1c-0.8-0.2-1.6-0.3-2.4-0.3c-0.9,0-1.6,0.2-2.1,0.5s-0.7,0.7-0.7,1.3
	c0,0.4,0.1,0.8,0.4,1.1c0.3,0.3,0.6,0.5,1,0.7c0.4,0.2,1.1,0.4,2,0.7c1.9,0.6,3.3,1.3,4.2,2.1c0.9,0.8,1.3,1.9,1.3,3.2
	c0,1.3-0.5,2.5-1.4,3.4C69.9,28.8,68.2,29.3,65.7,29.3z M89.4,29l-1.4-11.3l-4.3,7.7l-4.3-7.7L77.9,29h-3.2L77,12.2h2.5l4.1,7.7
	l4.1-7.7h2.5L92.6,29H89.4z M104.9,25h-6.1l-1.4,4h-3l6-16.8h2.9l6,16.8h-3L104.9,25z M104,22.3l-2.1-6l-2.1,6H104z M111.9,12.2h6.1
	c1.8,0,3.2,0.4,4.2,1.3c1,0.8,1.6,2.1,1.6,3.8c0,1.2-0.2,2.1-0.7,2.9c-0.5,0.7-1.2,1.3-2.1,1.8l3.8,7.1h-3.4l-3.2-6.2H118h-3V29
	h-3.1V12.2z M117.2,20.2c2.3,0,3.4-0.9,3.4-2.7c0-0.9-0.3-1.5-0.8-2c-0.5-0.5-1.3-0.7-2.5-0.7H115v5.4H117.2z M130.8,15.2H126v-3
	h12.6v3h-4.8V29h-3.1V15.2z M146.4,29.3c-0.9,0-2-0.1-3-0.4c-1.1-0.3-1.9-0.5-2.5-0.8l0.4-3.3c2.1,1,4,1.5,5.6,1.5
	c0.8,0,1.5-0.2,2-0.5c0.5-0.3,0.7-0.8,0.7-1.5c0-0.5-0.1-0.9-0.4-1.2c-0.3-0.3-0.6-0.6-1.1-0.8c-0.5-0.2-1.3-0.5-2.4-0.9
	c-1-0.4-1.9-0.7-2.5-1.1c-0.7-0.4-1.2-0.9-1.6-1.5c-0.4-0.6-0.6-1.4-0.6-2.3c0-1.4,0.5-2.6,1.6-3.5s2.6-1.3,4.5-1.3
	c0.9,0,1.8,0.1,2.8,0.3c0.9,0.2,1.8,0.5,2.5,0.8l-0.3,3.1c-1-0.4-1.9-0.8-2.7-1c-0.8-0.2-1.6-0.3-2.4-0.3c-0.9,0-1.6,0.2-2.1,0.5
	c-0.5,0.3-0.7,0.7-0.7,1.3c0,0.4,0.1,0.8,0.4,1.1c0.3,0.3,0.6,0.5,1,0.7c0.4,0.2,1.1,0.4,2,0.7c1.9,0.6,3.3,1.3,4.2,2.1
	c0.9,0.8,1.3,1.9,1.3,3.2c0,1.3-0.5,2.5-1.4,3.4C150.6,28.8,148.9,29.3,146.4,29.3z M156.2,12.2h3.1v6.6h7.7v-6.6h3.1V29h-3.1v-7.3
	h-7.7V29h-3.1V12.2z M181.7,29.3c-1.6,0-3-0.4-4.3-1.1c-1.2-0.7-2.2-1.8-3-3.1c-0.7-1.3-1.1-2.9-1.1-4.6c0-1.7,0.4-3.2,1.1-4.6
	c0.7-1.3,1.7-2.4,3-3.1c1.3-0.7,2.7-1.1,4.3-1.1s3,0.4,4.2,1.1c1.3,0.7,2.2,1.7,3,3.1c0.7,1.3,1.1,2.8,1.1,4.6
	c0,1.7-0.4,3.3-1.1,4.6c-0.7,1.3-1.7,2.3-3,3.1C184.7,29,183.3,29.3,181.7,29.3z M181.7,26.4c1.6,0,2.9-0.5,3.7-1.6
	c0.9-1.1,1.3-2.4,1.3-4.2c0-1.7-0.4-3.1-1.3-4.2c-0.9-1.1-2.1-1.6-3.7-1.6c-1.6,0-2.9,0.5-3.8,1.6c-0.9,1.1-1.3,2.4-1.3,4.2
	c0,1.7,0.4,3.1,1.3,4.2C178.8,25.8,180,26.4,181.7,26.4z M193.4,12.2h6c4,0,6,1.8,6,5.4c0,1.9-0.5,3.3-1.5,4.2
	c-1,0.9-2.5,1.4-4.4,1.4h-3V29h-3.1V12.2z M199,20.6c1.1,0,1.8-0.2,2.4-0.7c0.5-0.5,0.8-1.2,0.8-2.2c0-1-0.3-1.7-0.8-2.2
	c-0.5-0.5-1.3-0.7-2.4-0.7h-2.5v5.8H199z"/>
<path class="st0" d="M42,9.5c0-2.5-1-5-2.8-6.7S35,0,32.5,0H9.5C7,0,4.6,1,2.8,2.8S0,7,0,9.5v22.9c0,2.5,1,5,2.8,6.7S7,42,9.5,42
	h3.8c0.5,0,1-0.2,1.4-0.6c0.4-0.4,0.6-0.8,0.6-1.3c0-0.5-0.2-1-0.6-1.3c-0.4-0.4-0.8-0.6-1.4-0.6H9.5c-1.5,0-3-0.6-4-1.7
	c-1.1-1.1-1.7-2.5-1.7-4V9.5c0-1.5,0.6-3,1.7-4s2.5-1.7,4-1.7h22.9c1.5,0,3,0.6,4,1.7c1.1,1.1,1.7,2.5,1.7,4v22.9c0,1.5-0.6,3-1.7,4
	c-1.1,1.1-2.5,1.7-4,1.7h-3.8c-1.5,0-3-0.6-4-1.7c-1.1-1.1-1.7-2.5-1.7-4c2.5,0,5-1,6.7-2.8c1.8-1.8,2.8-4.2,2.8-6.7v-3.8
	c0-0.5-0.2-1-0.6-1.3c-0.4-0.4-0.8-0.6-1.3-0.6h-3.8v-5.7c0-0.5-0.2-1-0.6-1.3c-0.4-0.4-0.8-0.6-1.3-0.6s-1,0.2-1.3,0.6
	c-0.4,0.4-0.6,0.8-0.6,1.3v5.7h-3.8v-5.7c0-0.5-0.2-1-0.6-1.3c-0.4-0.4-0.8-0.6-1.3-0.6s-1,0.2-1.3,0.6c-0.4,0.4-0.6,0.8-0.6,1.3
	v5.7h-3.8c-0.5,0-1,0.2-1.3,0.6c-0.4,0.4-0.6,0.8-0.6,1.3v3.8c0,2.5,1,5,2.8,6.7c1.8,1.8,4.2,2.8,6.7,2.8c0,2.5,1,5,2.8,6.7
	s4.2,2.8,6.7,2.8h3.8c2.5,0,5-1,6.7-2.8S42,35,42,32.5V9.5z M13.4,22.9V21h15.3v1.9c0,1.5-0.6,3-1.7,4s-2.5,1.7-4,1.7h-3.8
	c-1.5,0-3-0.6-4-1.7S13.4,24.4,13.4,22.9z"/>
</svg>
